assets/imgs/fgv.svg

<svg width="246" height="45" viewBox="0 0 246 45" fill="none" xmlns="http://www.w3.org/2000/svg">
<g clip-path="url(#clip0)">
<path d="M175.788 43.8163C168.49 42.9563 162.114 38.7794 158.793 32.7189C155.431 26.5559 155.308 18.325 158.485 12.0392C160.822 7.43234 164.799 3.72639 169.597 1.74032C173.061 0.327552 174.25 0.122803 179.273 0.122803C184.275 0.122803 185.607 0.327552 188.928 1.6789C191.47 2.70264 196.083 5.56913 196.083 6.14243C196.083 6.2448 194.566 8.16944 192.7 10.4012L189.338 14.4757L187.698 13.3496C184.623 11.2612 182.676 10.6264 179.273 10.6264C176.218 10.606 174.599 11.1793 172.241 13.0629C171.114 13.9843 169.515 16.4004 168.92 18.0383C168.285 19.9016 168.141 23.0547 168.613 25.0408C169.884 30.3642 174.23 33.7631 179.806 33.7836C181.999 33.7836 184.623 33.1898 185.894 32.3913C186.325 32.1046 186.345 31.9613 186.345 29.5657V27.0268H182.245H178.145V22.7271V18.4274H187.985H197.825V27.9277V37.4281L196.759 38.2266C193.418 40.7245 188.99 42.7106 185.013 43.5091C183.106 43.8982 177.879 44.062 175.788 43.8163Z" fill="white"/>
<path d="M28.5565 33.8449C24.067 28.6852 18.1425 21.8875 15.375 18.7139C4.182 5.9171 0.102501 1.20787 0.0410015 1.0236C1.49757e-06 0.880272 6.0475 0.818848 16.892 0.818848H33.8045L48.1135 17.2397C61.172 32.2683 65.7845 37.5508 67.527 39.5164C69.4745 41.7072 70.52 42.9562 70.52 43.0791C70.52 43.1405 62.9145 43.2019 53.628 43.2019H36.7155L28.5565 33.8449Z" fill="white"/>
<path d="M118.49 22.0104V0.818848H135.505H152.52L152.479 5.999L152.418 11.1587L141.409 11.2201L130.38 11.2611V14.7418V18.2225H140.322H150.265V23.1365V28.0505H140.322H130.38L130.339 35.5852L130.277 43.0995L124.394 43.161L118.49 43.2019V22.0104Z" fill="white"/>
<path d="M217.854 43.0586C217.792 42.9562 216.849 40.6835 215.763 37.9808C213.836 33.2306 212.831 30.7327 208.998 21.2938C208.014 18.8777 206.456 15.008 205.513 12.6943C204.57 10.3806 203.114 6.79752 202.274 4.70908L200.736 0.921222L207.317 0.859797C212.401 0.818848 213.918 0.880272 214.041 1.06455C214.143 1.20787 214.451 2.00639 214.738 2.86634C215.332 4.56576 216.665 8.27171 218.633 13.718C219.35 15.6836 220.416 18.632 220.99 20.27C223.491 27.252 223.512 27.3339 223.676 26.9039C223.778 26.6991 224.455 24.8154 225.193 22.727C227.407 16.5231 228.534 13.4109 229.908 9.62306C230.625 7.65747 231.63 4.89335 232.122 3.48059L233.044 0.921222L239.543 0.859797L246.021 0.818848L245.877 1.2693C245.816 1.53547 245.242 2.98919 244.627 4.50433C243.991 6.01947 243.007 8.45599 242.413 9.93018C240.998 13.4314 238.948 18.4682 237.493 22.0104C236.201 25.184 234.315 29.7908 232.368 34.6024C229.764 41.0111 229.17 42.4648 228.965 42.8334C228.78 43.1814 228.37 43.2019 223.348 43.2019C220.375 43.2019 217.895 43.1405 217.854 43.0586Z" fill="white"/>
<path d="M78.8225 26.1261C78.269 25.7371 74.0255 23.1163 69.3925 20.2703C64.78 17.4242 60.844 14.9673 60.68 14.8035C60.4135 14.5373 60.516 14.3735 61.6025 13.3702C62.279 12.7355 65.5795 9.64378 68.921 6.51112L75.03 0.819092H91.4505C100.84 0.819092 107.83 0.900991 107.789 1.00337C107.769 1.10574 106.846 1.98616 105.78 2.98943C104.714 3.97223 102.644 5.89687 101.168 7.26869C99.712 8.64051 97.0675 11.077 95.325 12.6945C93.5825 14.3121 91.635 16.1138 91.02 16.7076C85.6695 21.7035 80.0935 26.8222 79.991 26.8222C79.909 26.8018 79.3965 26.4946 78.8225 26.1261Z" fill="#0791D3"/>
</g>
<defs>
<clipPath id="clip0">
<rect width="246" height="44.0211" fill="white"/>
</clipPath>
</defs>
</svg>

<svg width="246" height="45" viewBox="0 0 246 45" fill="none" xmlns="http://www.w3.org/2000/svg"><g clip-path="url(#clip0)"><path d="M175.788 43.816c-7.298-.86-13.674-5.037-16.995-11.097-3.362-6.163-3.485-14.394-.308-20.68 2.337-4.607 6.314-8.313 11.112-10.299C173.061.328 174.25.123 179.273.123c5.002 0 6.334.205 9.655 1.556 2.542 1.024 7.155 3.89 7.155 4.463 0 .103-1.517 2.027-3.383 4.26l-3.362 4.074-1.64-1.126c-3.075-2.089-5.022-2.724-8.425-2.724-3.055-.02-4.674.553-7.032 2.437-1.127.921-2.726 3.337-3.321 4.975-.635 1.864-.779 5.017-.307 7.003 1.271 5.323 5.617 8.722 11.193 8.743 2.193 0 4.817-.594 6.088-1.393.431-.286.451-.43.451-2.825v-2.54h-8.2v-8.599h19.68V37.428l-1.066.799c-3.341 2.498-7.769 4.484-11.746 5.282-1.907.39-7.134.553-9.225.307zM28.556 33.845c-4.489-5.16-10.414-11.957-13.181-15.131C4.182 5.917.103 1.208.041 1.024 0 .88 6.047.819 16.892.819h16.912l14.31 16.42c13.058 15.03 17.67 20.312 19.413 22.277 1.948 2.191 2.993 3.44 2.993 3.563 0 .062-7.605.123-16.892.123H36.715l-8.159-9.357zM118.49 22.01V.82h34.03l-.041 5.18-.061 5.16-11.009.061-11.029.041v6.962H150.265v9.827H130.38l-.041 7.535-.062 7.514-5.883.062-5.904.04v-21.19zM217.854 43.059c-.062-.103-1.005-2.375-2.091-5.078-1.927-4.75-2.932-7.248-6.765-16.687-.984-2.416-2.542-6.286-3.485-8.6-.943-2.313-2.399-5.896-3.239-7.985L200.736.921l6.581-.061c5.084-.041 6.601.02 6.724.205.102.143.41.941.697 1.801.594 1.7 1.927 5.406 3.895 10.852a681.911 681.911 0 012.357 6.552c2.501 6.982 2.522 7.064 2.686 6.634.102-.205.779-2.089 1.517-4.177 2.214-6.204 3.341-9.316 4.715-13.104.717-1.966 1.722-4.73 2.214-6.142l.922-2.56 6.499-.061 6.478-.041-.144.45c-.061.266-.635 1.72-1.25 3.235a488.842 488.842 0 00-2.214 5.426 2627.03 2627.03 0 01-4.92 12.08c-1.292 3.174-3.178 7.78-5.125 12.592-2.604 6.41-3.198 7.863-3.403 8.231-.185.348-.595.369-5.617.369-2.973 0-5.453-.061-5.494-.143z" fill="#fff"/><path d="M78.823 26.126c-.554-.389-4.797-3.01-9.43-5.856-4.613-2.846-8.549-5.303-8.713-5.466-.267-.267-.164-.43.922-1.434l7.319-6.859L75.03.82h16.42c9.39 0 16.38.082 16.339.184-.02.103-.943.983-2.009 1.986-1.066.983-3.136 2.908-4.612 4.28-1.456 1.372-4.1 3.808-5.843 5.425-1.743 1.618-3.69 3.42-4.305 4.014-5.35 4.995-10.926 10.114-11.029 10.114-.082-.02-.594-.327-1.168-.696z" fill="#0791D3"/></g><defs><clipPath id="clip0"><path fill="#fff" d="M0 0h246v44.021H0z"/></clipPath></defs></svg>
